{
 "compressionlevel": -1,
 "type": "map",
 "version": "1.10",
 "tiledversion": "1.10.2",
 "orientation": "orthogonal",
 "renderorder": "right-down",
 "infinite": false,
 "width": 24,
 "height": 12,
 "tilewidth": 16,
 "tileheight": 16,
 "nextlayerid": 6,
 "nextobjectid": 9,
 "layers": [
  {
   "id": 1,
   "name": "ground",
   "type": "tilelayer",
   "x": 0,
   "y": 0,
   "width": 24,
   "height": 12,
   "opacity": 1,
   "visible": true,
   "data": [
    2,
    2,
    2,
    2,
    2,
    2,
    2,
    2,
    2,
    2,
    2,
    2,
    2,
    2,
    2,
    2,
    2,
    2,
    2,
    2,
    2,
    2,
    2,
    2,
    2,
    2,
    2,
    2,
    2,
    2,
    2,
    2,
    2,
    2,
    2,
    2,
    2,
    2,
    2,
    2,
    2,
    2,
    2,
    2,
    2,
    2,
    2,
    2,
    2,
    2,
    2,
    2,
    2,
    2,
    2,
    2,
    2,
    2,
    2,
    2,
    2,
    2,
    2,
    2,
    2,
    2,
    2,
    2,
    2,
    2,
    2,
    2,
    9,
    9,
    9,
    9,
    9,
    9,
    9,
    9,
    9,
    9,
    9,
    9,
    9,
    9,
    9,
    9,
    9,
    9,
    9,
    9,
    9,
    9,
    9,
    9,
    8,
    8,
    8,
    8,
    8,
    8,
    8,
    8,
    8,
    8,
    8,
    8,
    8,
    8,
    8,
    8,
    8,
    8,
    8,
    8,
    8,
    8,
    8,
    8,
    8,
    8,
    8,
    8,
    8,
    8,
    8,
    8,
    8,
    8,
    8,
    8,
    8,
    8,
    8,
    8,
    8,
    8,
    8,
    8,
    8,
    8,
    8,
    8,
    8,
    8,
    8,
    8,
    8,
    8,
    8,
    8,
    8,
    8,
    8,
    8,
    8,
    8,
    8,
    8,
    8,
    8,
    8,
    8,
    8,
    8,
    8,
    8,
    10,
    10,
    10,
    10,
    10,
    10,
    10,
    10,
    10,
    10,
    10,
    10,
    10,
    10,
    10,
    10,
    10,
    10,
    10,
    10,
    10,
    10,
    10,
    10,
    10,
    10,
    10,
    10,
    10,
    10,
    10,
    10,
    10,
    10,
    10,
    10,
    10,
    10,
    10,
    10,
    10,
    10,
    10,
    10,
    10,
    10,
    10,
    10,
    10,
    10,
    10,
    10,
    10,
    10,
    10,
    10,
    10,
    10,
    10,
    10,
    10,
    10,
    10,
    10,
    10,
    10,
    10,
    10,
    10,
    10,
    10,
    10,
    10,
    10,
    10,
    10,
    10,
    10,
    10,
    10,
    10,
    10,
    10,
    10,
    10,
    10,
    10,
    10,
    10,
    10,
    10,
    10,
    10,
    10,
    10,
    10,
    10,
    10,
    10,
    10,
    10,
    10,
    10,
    10,
    10,
    10,
    10,
    10,
    10,
    10,
    10,
    10,
    10,
    10,
    10,
    10,
    10,
    10,
    10,
    10
   ]
  },
  {
   "id": 2,
   "name": "walls",
   "type": "tilelayer",
   "x": 0,
   "y": 0,
   "width": 24,
   "height": 12,
   "opacity": 1,
   "visible": true,
   "data": [
    5,
    49,
    49,
    49,
    5,
    49,
    49,
    49,
    5,
    49,
    49,
    49,
    5,
    49,
    49,
    49,
    5,
    49,
    49,
    49,
    5,
    49,
    49,
    49,
    4,
    0,
    34,
    0,
    4,
    0,
    34,
    0,
    4,
    0,
    34,
    0,
    4,
    0,
    34,
    0,
    4,
    0,
    34,
    0,
    4,
    0,
    34,
    0,
    4,
    3,
    3,
    3,
    4,
    3,
    33,
    3,
    4,
    3,
    3,
    3,
    4,
    3,
    33,
    3,
    4,
    3,
    3,
    3,
    4,
    3,
    3,
    3,
    0,
    38,
    0,
    0,
    0,
    0,
    0,
    0,
    0,
    0,
    0,
    0,
    39,
    0,
    0,
    0,
    0,
    0,
    0,
    0,
    0,
    0,
    38,
    0,
    0,
    38,
    0,
    0,
    0,
    0,
    0,
    0,
    0,
    0,
    0,
    0,
    0,
    0,
    0,
    0,
    0,
    0,
    0,
    0,
    0,
    0,
    38,
    0,
    0,
    38,
    0,
    0,
    0,
    0,
    0,
    0,
    0,
    0,
    0,
    0,
    0,
    0,
    0,
    0,
    0,
    0,
    0,
    0,
    0,
    0,
    38,
    0,
    7,
    6,
    6,
    6,
    7,
    6,
    6,
    6,
    7,
    6,
    6,
    6,
    7,
    6,
    6,
    6,
    7,
    6,
    6,
    6,
    7,
    6,
    6,
    6,
    0,
    0,
    0,
    0,
    0,
    0,
    0,
    0,
    0,
    0,
    0,
    0,
    0,
    0,
    0,
    0,
    0,
    0,
    0,
    0,
    0,
    0,
    0,
    0,
    0,
    0,
    0,
    0,
    0,
    0,
    0,
    0,
    0,
    0,
    0,
    0,
    0,
    0,
    0,
    0,
    0,
    0,
    0,
    0,
    0,
    0,
    0,
    0,
    0,
    0,
    0,
    24,
    0,
    0,
    0,
    0,
    0,
    0,
    0,
    24,
    0,
    0,
    0,
    0,
    0,
    0,
    0,
    24,
    0,
    0,
    0,
    0,
    0,
    0,
    0,
    0,
    0,
    0,
    0,
    0,
    0,
    0,
    0,
    0,
    0,
    0,
    0,
    0,
    0,
    0,
    0,
    0,
    0,
    0,
    0,
    0,
    0,
    0,
    0,
    0,
    0,
    0,
    0,
    0,
    0,
    0,
    0,
    0,
    0,
    0,
    0,
    0,
    0,
    0,
    0,
    0,
    0,
    0,
    0,
    0
   ]
  },
  {
   "id": 3,
   "name": "collision",
   "type": "tilelayer",
   "x": 0,
   "y": 0,
   "width": 24,
   "height": 12,
   "opacity": 1,
   "visible": false,
   "data": [
    1,
    1,
    1,
    1,
    1,
    1,
    1,
    1,
    1,
    1,
    1,
    1,
    1,
    1,
    1,
    1,
    1,
    1,
    1,
    1,
    1,
    1,
    1,
    1,
    1,
    1,
    1,
    1,
    1,
    1,
    1,
    1,
    1,
    1,
    1,
    1,
    1,
    1,
    1,
    1,
    1,
    1,
    1,
    1,
    1,
    1,
    1,
    1,
    1,
    1,
    1,
    1,
    1,
    1,
    1,
    1,
    1,
    1,
    1,
    1,
    1,
    1,
    1,
    1,
    1,
    1,
    1,
    1,
    1,
    1,
    1,
    1,
    0,
    0,
    0,
    0,
    0,
    0,
    0,
    0,
    0,
    0,
    1,
    0,
    1,
    0,
    0,
    0,
    0,
    1,
    0,
    0,
    0,
    0,
    0,
    0,
    0,
    0,
    0,
    0,
    0,
    0,
    0,
    0,
    0,
    0,
    0,
    0,
    0,
    0,
    0,
    0,
    0,
    0,
    0,
    0,
    0,
    0,
    0,
    0,
    0,
    0,
    0,
    0,
    0,
    0,
    0,
    0,
    0,
    0,
    0,
    0,
    0,
    0,
    0,
    0,
    0,
    0,
    0,
    0,
    0,
    0,
    0,
    0,
    1,
    1,
    1,
    1,
    1,
    1,
    1,
    1,
    1,
    1,
    1,
    1,
    1,
    1,
    1,
    1,
    1,
    1,
    1,
    1,
    1,
    1,
    1,
    1,
    1,
    1,
    1,
    1,
    1,
    1,
    1,
    1,
    1,
    1,
    1,
    1,
    1,
    1,
    1,
    1,
    1,
    1,
    1,
    1,
    1,
    1,
    1,
    1,
    1,
    1,
    1,
    1,
    1,
    1,
    1,
    1,
    1,
    1,
    1,
    1,
    1,
    1,
    1,
    1,
    1,
    1,
    1,
    1,
    1,
    1,
    1,
    1,
    1,
    1,
    1,
    1,
    1,
    1,
    1,
    1,
    1,
    1,
    1,
    1,
    1,
    1,
    1,
    1,
    1,
    1,
    1,
    1,
    1,
    1,
    1,
    1,
    1,
    1,
    1,
    1,
    1,
    1,
    1,
    1,
    1,
    1,
    1,
    1,
    1,
    1,
    1,
    1,
    1,
    1,
    1,
    1,
    1,
    1,
    1,
    1,
    1,
    1,
    1,
    1,
    1,
    1,
    1,
    1,
    1,
    1,
    1,
    1,
    1,
    1,
    1,
    1,
    1,
    1,
    1,
    1,
    1,
    1,
    1,
    1
   ]
  },
  {
   "id": 4,
   "name": "overlay",
   "type": "tilelayer",
   "x": 0,
   "y": 0,
   "width": 24,
   "height": 12,
   "opacity": 1,
   "visible": true,
   "data": [
    0,
    0,
    0,
    0,
    0,
    0,
    0,
    0,
    0,
    0,
    0,
    0,
    0,
    0,
    0,
    0,
    0,
    0,
    0,
    0,
    0,
    0,
    0,
    0,
    0,
    0,
    0,
    0,
    0,
    0,
    0,
    0,
    0,
    0,
    0,
    0,
    0,
    0,
    0,
    0,
    0,
    0,
    0,
    0,
    0,
    0,
    0,
    0,
    0,
    0,
    0,
    0,
    0,
    0,
    0,
    0,
    0,
    0,
    0,
    0,
    0,
    0,
    0,
    0,
    0,
    0,
    0,
    0,
    0,
    0,
    0,
    0,
    0,
    0,
    0,
    0,
    0,
    0,
    0,
    0,
    0,
    0,
    0,
    0,
    0,
    0,
    0,
    0,
    0,
    0,
    0,
    0,
    0,
    0,
    0,
    0,
    0,
    0,
    0,
    0,
    0,
    0,
    0,
    0,
    0,
    0,
    0,
    0,
    0,
    0,
    0,
    0,
    0,
    0,
    0,
    0,
    0,
    0,
    0,
    0,
    0,
    0,
    0,
    0,
    0,
    0,
    0,
    0,
    0,
    0,
    0,
    0,
    0,
    0,
    0,
    0,
    0,
    0,
    0,
    0,
    0,
    0,
    0,
    0,
    0,
    0,
    0,
    0,
    0,
    0,
    0,
    0,
    0,
    0,
    0,
    0,
    0,
    0,
    0,
    0,
    0,
    0,
    0,
    0,
    0,
    0,
    0,
    0,
    0,
    0,
    0,
    20,
    21,
    0,
    0,
    0,
    0,
    0,
    0,
    20,
    21,
    0,
    0,
    0,
    0,
    0,
    0,
    20,
    21,
    0,
    0,
    0,
    0,
    0,
    0,
    22,
    23,
    0,
    0,
    0,
    0,
    0,
    0,
    22,
    23,
    0,
    0,
    0,
    0,
    0,
    0,
    22,
    23,
    0,
    0,
    0,
    0,
    0,
    0,
    0,
    0,
    0,
    0,
    0,
    0,
    0,
    0,
    0,
    0,
    0,
    0,
    0,
    0,
    0,
    0,
    0,
    0,
    0,
    0,
    0,
    0,
    0,
    0,
    0,
    0,
    0,
    0,
    0,
    0,
    0,
    0,
    0,
    0,
    0,
    0,
    0,
    0,
    0,
    0,
    0,
    0,
    0,
    0,
    0,
    0,
    0,
    0,
    0,
    0,
    0,
    0,
    0,
    0,
    0,
    0,
    0,
    0,
    0,
    0,
    0,
    0,
    0,
    0,
    0,
    0,
    0,
    0,
    0
   ]
  },
  {
   "id": 5,
   "name": "objects",
   "type": "objectgroup",
   "x": 0,
   "y": 0,
   "opacity": 1,
   "visible": true,
   "draworder": "topdown",
   "objects": [
    {
     "id": 1,
     "name": "",
     "type": "sprite",
     "x": 160,
     "y": 40,
     "width": 16,
     "height": 24,
     "rotation": 0,
     "visible": true,
     "properties": [
      {
       "name": "frame",
       "type": "string",
       "value": "student_girl"
      }
     ]
    },
    {
     "id": 2,
     "name": "",
     "type": "sprite",
     "x": 272,
     "y": 40,
     "width": 16,
     "height": 24,
     "rotation": 0,
     "visible": true,
     "properties": [
      {
       "name": "frame",
       "type": "string",
       "value": "student_boy"
      }
     ]
    },
    {
     "id": 3,
     "name": "to-san-chinh",
     "type": "exit",
     "x": 0,
     "y": 48,
     "width": 16,
     "height": 48,
     "rotation": 0,
     "visible": true
    },
    {
     "id": 4,
     "name": "to-san-thuong",
     "type": "exit",
     "x": 368,
     "y": 48,
     "width": 16,
     "height": 48,
     "rotation": 0,
     "visible": true
    },
    {
     "id": 5,
     "name": "lop-12a1",
     "type": "interact",
     "x": 80,
     "y": 32,
     "width": 48,
     "height": 48,
     "rotation": 0,
     "visible": true,
     "properties": [
      {
       "name": "kind",
       "type": "string",
       "value": "text"
      },
      {
       "name": "text",
       "type": "string",
       "value": "Lớp 12A1. Cửa còn hé mở, bên trong nghe tiếng quạt trần quay đều."
      }
     ]
    },
    {
     "id": 6,
     "name": "lop-12a2",
     "type": "interact",
     "x": 208,
     "y": 32,
     "width": 48,
     "height": 48,
     "rotation": 0,
     "visible": true,
     "properties": [
      {
       "name": "kind",
       "type": "string",
       "value": "text"
      },
      {
       "name": "text",
       "type": "string",
       "value": "Lớp 12A2. Trên bảng vẫn còn dòng chữ đếm ngược ngày thi."
      }
     ]
    },
    {
     "id": 7,
     "name": "bang-ghe",
     "type": "interact",
     "x": 176,
     "y": 32,
     "width": 48,
     "height": 48,
     "rotation": 0,
     "visible": true,
     "properties": [
      {
       "name": "kind",
       "type": "string",
       "value": "activity"
      },
      {
       "name": "text",
       "type": "string",
       "value": "Bạn ngồi xuống ghế cuối hành lang, nghe tiếng trống xa xa."
      },
      {
       "name": "label",
       "type": "string",
       "value": "Ngồi nghỉ"
      },
      {
       "name": "cost",
       "type": "int",
       "value": 1
      }
     ]
    },
    {
     "id": 8,
     "name": "lan-can",
     "type": "interact",
     "x": 64,
     "y": 80,
     "width": 80,
     "height": 16,
     "rotation": 0,
     "visible": true,
     "properties": [
      {
       "name": "kind",
       "type": "string",
       "value": "text"
      },
      {
       "name": "text",
       "type": "string",
       "value": "Từ lan can nhìn xuống, tán phượng che kín cả góc sân."
      }
     ]
    }
   ]
  }
 ],
 "tilesets": [
  {
   "firstgid": 1,
   "name": "tileset",
   "image": "../../public/assets/tileset.png",
   "imagewidth": 256,
   "imageheight": 64,
   "columns": 16,
   "tilecount": 64,
   "tilewidth": 16,
   "tileheight": 16,
   "margin": 0,
   "spacing": 0
  }
 ]
}
