{
 "compressionlevel": -1,
 "type": "map",
 "version": "1.10",
 "tiledversion": "1.10.2",
 "orientation": "orthogonal",
 "renderorder": "right-down",
 "infinite": false,
 "width": 30,
 "height": 26,
 "tilewidth": 16,
 "tileheight": 16,
 "nextlayerid": 6,
 "nextobjectid": 21,
 "layers": [
  {
   "id": 1,
   "name": "ground",
   "type": "tilelayer",
   "x": 0,
   "y": 0,
   "width": 30,
   "height": 26,
   "opacity": 1,
   "visible": true,
   "data": [
    2,
    8,
    8,
    2,
    2,
    2,
    2,
    2,
    2,
    2,
    2,
    2,
    2,
    2,
    2,
    2,
    2,
    2,
    2,
    2,
    2,
    2,
    2,
    2,
    2,
    2,
    2,
    8,
    8,
    2,
    2,
    8,
    8,
    2,
    2,
    2,
    2,
    2,
    2,
    2,
    2,
    2,
    2,
    2,
    2,
    2,
    2,
    2,
    2,
    2,
    2,
    2,
    2,
    2,
    2,
    2,
    2,
    8,
    8,
    2,
    2,
    8,
    8,
    2,
    2,
    2,
    2,
    2,
    2,
    2,
    2,
    2,
    2,
    2,
    2,
    2,
    2,
    2,
    2,
    2,
    2,
    2,
    2,
    2,
    2,
    2,
    2,
    8,
    8,
    2,
    9,
    8,
    8,
    9,
    9,
    9,
    9,
    9,
    9,
    9,
    9,
    9,
    9,
    9,
    9,
    9,
    9,
    9,
    9,
    9,
    9,
    9,
    9,
    9,
    9,
    9,
    9,
    8,
    8,
    9,
    8,
    8,
    8,
    8,
    8,
    8,
    8,
    8,
    8,
    8,
    8,
    8,
    8,
    8,
    8,
    8,
    8,
    8,
    8,
    8,
    8,
    8,
    8,
    8,
    8,
    8,
    8,
    8,
    8,
    8,
    8,
    8,
    8,
    8,
    8,
    8,
    8,
    8,
    8,
    8,
    8,
    8,
    8,
    8,
    8,
    8,
    8,
    8,
    8,
    8,
    8,
    8,
    8,
    8,
    8,
    8,
    8,
    8,
    8,
    8,
    8,
    8,
    8,
    8,
    8,
    8,
    8,
    8,
    8,
    8,
    8,
    8,
    8,
    8,
    8,
    8,
    8,
    8,
    8,
    8,
    8,
    8,
    8,
    8,
    8,
    8,
    8,
    8,
    8,
    8,
    2,
    8,
    8,
    2,
    2,
    2,
    2,
    2,
    2,
    2,
    2,
    2,
    2,
    2,
    2,
    2,
    2,
    2,
    2,
    2,
    2,
    2,
    2,
    2,
    2,
    2,
    2,
    8,
    8,
    2,
    2,
    8,
    8,
    2,
    2,
    2,
    2,
    2,
    2,
    2,
    2,
    2,
    2,
    2,
    2,
    2,
    2,
    2,
    2,
    2,
    2,
    2,
    2,
    2,
    2,
    2,
    2,
    8,
    8,
    2,
    2,
    8,
    8,
    2,
    2,
    2,
    2,
    2,
    2,
    2,
    2,
    2,
    2,
    2,
    2,
    2,
    2,
    2,
    2,
    2,
    2,
    2,
    2,
    2,
    2,
    2,
    2,
    8,
    8,
    2,
    9,
    8,
    8,
    9,
    9,
    9,
    9,
    9,
    9,
    9,
    9,
    9,
    9,
    9,
    9,
    9,
    9,
    9,
    9,
    9,
    9,
    9,
    9,
    9,
    9,
    9,
    9,
    8,
    8,
    9,
    8,
    8,
    8,
    8,
    8,
    8,
    8,
    8,
    8,
    8,
    8,
    8,
    8,
    8,
    8,
    8,
    8,
    8,
    8,
    8,
    8,
    8,
    8,
    8,
    8,
    8,
    8,
    8,
    8,
    8,
    8,
    8,
    8,
    8,
    8,
    8,
    8,
    8,
    8,
    8,
    8,
    8,
    8,
    8,
    8,
    8,
    8,
    8,
    8,
    8,
    8,
    8,
    8,
    8,
    8,
    8,
    8,
    8,
    8,
    8,
    8,
    8,
    8,
    8,
    8,
    8,
    8,
    8,
    8,
    8,
    8,
    8,
    8,
    8,
    8,
    8,
    8,
    8,
    8,
    8,
    8,
    8,
    8,
    8,
    8,
    8,
    8,
    8,
    8,
    8,
    2,
    8,
    8,
    2,
    2,
    2,
    2,
    2,
    2,
    2,
    2,
    2,
    2,
    2,
    2,
    2,
    2,
    2,
    2,
    2,
    2,
    2,
    2,
    2,
    2,
    2,
    2,
    8,
    8,
    2,
    2,
    8,
    8,
    2,
    2,
    2,
    2,
    2,
    2,
    2,
    2,
    2,
    2,
    2,
    2,
    2,
    2,
    2,
    2,
    2,
    2,
    2,
    2,
    2,
    2,
    2,
    2,
    8,
    8,
    2,
    2,
    8,
    8,
    2,
    2,
    2,
    2,
    2,
    2,
    2,
    2,
    2,
    2,
    2,
    2,
    2,
    2,
    2,
    2,
    2,
    2,
    2,
    2,
    2,
    2,
    2,
    2,
    8,
    8,
    2,
    9,
    8,
    8,
    9,
    9,
    9,
    9,
    9,
    9,
    9,
    9,
    9,
    9,
    9,
    9,
    9,
    9,
    9,
    9,
    9,
    9,
    9,
    9,
    9,
    9,
    9,
    9,
    8,
    8,
    9,
    8,
    8,
    8,
    8,
    8,
    8,
    8,
    8,
    8,
    8,
    8,
    8,
    8,
    8,
    8,
    8,
    8,
    8,
    8,
    8,
    8,
    8,
    8,
    8,
    8,
    8,
    8,
    8,
    8,
    8,
    8,
    8,
    8,
    8,
    8,
    8,
    8,
    8,
    8,
    8,
    8,
    8,
    8,
    8,
    8,
    8,
    8,
    8,
    8,
    8,
    8,
    8,
    8,
    8,
    8,
    8,
    8,
    8,
    8,
    8,
    8,
    8,
    8,
    8,
    8,
    8,
    8,
    8,
    8,
    8,
    8,
    8,
    8,
    8,
    8,
    8,
    8,
    8,
    8,
    8,
    8,
    8,
    8,
    8,
    8,
    8,
    8,
    8,
    8,
    8,
    10,
    10,
    10,
    10,
    10,
    10,
    10,
    10,
    10,
    10,
    10,
    10,
    10,
    10,
    10,
    10,
    10,
    10,
    10,
    10,
    10,
    10,
    10,
    10,
    10,
    10,
    10,
    10,
    10,
    10,
    10,
    10,
    10,
    10,
    10,
    10,
    10,
    10,
    10,
    10,
    10,
    10,
    10,
    10,
    10,
    10,
    10,
    10,
    10,
    10,
    10,
    10,
    10,
    10,
    10,
    10,
    10,
    10,
    10,
    10,
    10,
    10,
    10,
    10,
    10,
    10,
    10,
    10,
    10,
    10,
    10,
    10,
    10,
    10,
    10,
    10,
    10,
    10,
    10,
    10,
    10,
    10,
    10,
    10,
    10,
    10,
    10,
    10,
    10,
    10,
    10,
    10,
    10,
    10,
    10,
    10,
    10,
    10,
    10,
    10,
    10,
    10,
    10,
    10,
    10,
    10,
    10,
    10,
    10,
    10,
    10,
    10,
    10,
    10,
    10,
    10,
    10,
    10,
    10,
    10,
    10,
    10,
    10,
    10,
    10,
    10,
    10,
    10,
    10,
    10,
    10,
    10,
    10,
    10,
    10,
    10,
    10,
    10,
    10,
    10,
    10,
    10,
    10,
    10,
    10,
    10,
    10,
    10,
    10,
    10
   ]
  },
  {
   "id": 2,
   "name": "walls",
   "type": "tilelayer",
   "x": 0,
   "y": 0,
   "width": 30,
   "height": 26,
   "opacity": 1,
   "visible": true,
   "data": [
    5,
    38,
    38,
    49,
    5,
    49,
    49,
    49,
    5,
    49,
    49,
    49,
    5,
    49,
    49,
    49,
    5,
    49,
    49,
    49,
    5,
    49,
    49,
    49,
    5,
    49,
    49,
    38,
    38,
    49,
    4,
    38,
    38,
    0,
    4,
    0,
    34,
    0,
    4,
    0,
    34,
    0,
    4,
    0,
    34,
    0,
    4,
    0,
    34,
    0,
    4,
    0,
    34,
    0,
    4,
    0,
    34,
    38,
    38,
    0,
    4,
    38,
    38,
    3,
    4,
    3,
    33,
    3,
    4,
    3,
    3,
    3,
    4,
    3,
    33,
    3,
    4,
    3,
    3,
    3,
    4,
    3,
    33,
    3,
    4,
    3,
    3,
    38,
    38,
    3,
    0,
    38,
    38,
    0,
    0,
    0,
    0,
    0,
    0,
    0,
    0,
    0,
    0,
    0,
    0,
    0,
    0,
    0,
    0,
    0,
    0,
    0,
    0,
    0,
    0,
    0,
    0,
    38,
    38,
    0,
    0,
    38,
    38,
    0,
    0,
    0,
    0,
    0,
    0,
    0,
    0,
    0,
    0,
    0,
    0,
    0,
    0,
    0,
    0,
    0,
    0,
    0,
    0,
    0,
    0,
    0,
    0,
    38,
    38,
    0,
    0,
    38,
    38,
    0,
    0,
    0,
    0,
    0,
    0,
    0,
    0,
    0,
    0,
    0,
    0,
    0,
    0,
    0,
    0,
    0,
    0,
    0,
    0,
    0,
    0,
    0,
    0,
    38,
    38,
    0,
    7,
    38,
    38,
    6,
    7,
    6,
    6,
    6,
    7,
    6,
    6,
    6,
    7,
    6,
    6,
    6,
    7,
    6,
    6,
    6,
    7,
    6,
    6,
    6,
    7,
    6,
    6,
    38,
    38,
    6,
    5,
    38,
    38,
    49,
    5,
    49,
    49,
    49,
    5,
    49,
    49,
    49,
    5,
    49,
    49,
    49,
    5,
    49,
    49,
    49,
    5,
    49,
    49,
    49,
    5,
    49,
    49,
    38,
    38,
    49,
    4,
    38,
    38,
    0,
    4,
    0,
    34,
    0,
    4,
    0,
    34,
    0,
    4,
    0,
    34,
    0,
    4,
    0,
    34,
    0,
    4,
    0,
    34,
    0,
    4,
    0,
    34,
    38,
    38,
    0,
    4,
    38,
    38,
    3,
    4,
    3,
    33,
    3,
    4,
    3,
    3,
    3,
    4,
    3,
    33,
    3,
    4,
    3,
    3,
    3,
    4,
    3,
    33,
    3,
    4,
    3,
    3,
    38,
    38,
    3,
    0,
    38,
    38,
    0,
    0,
    0,
    0,
    0,
    0,
    0,
    0,
    0,
    0,
    0,
    0,
    0,
    0,
    0,
    0,
    0,
    0,
    0,
    0,
    0,
    0,
    0,
    0,
    38,
    38,
    0,
    0,
    38,
    38,
    0,
    0,
    0,
    0,
    0,
    0,
    0,
    0,
    0,
    0,
    0,
    0,
    0,
    0,
    0,
    0,
    0,
    0,
    0,
    0,
    0,
    0,
    0,
    0,
    38,
    38,
    0,
    0,
    38,
    38,
    0,
    0,
    0,
    0,
    0,
    0,
    0,
    0,
    0,
    0,
    0,
    0,
    0,
    0,
    0,
    0,
    0,
    0,
    0,
    0,
    0,
    0,
    0,
    0,
    38,
    38,
    0,
    7,
    38,
    38,
    6,
    7,
    6,
    6,
    6,
    7,
    6,
    6,
    6,
    7,
    6,
    6,
    6,
    7,
    6,
    6,
    6,
    7,
    6,
    6,
    6,
    7,
    6,
    6,
    38,
    38,
    6,
    5,
    38,
    38,
    49,
    5,
    49,
    49,
    49,
    5,
    49,
    49,
    49,
    5,
    49,
    49,
    49,
    5,
    49,
    49,
    49,
    5,
    49,
    49,
    49,
    5,
    49,
    49,
    38,
    38,
    49,
    4,
    38,
    38,
    0,
    4,
    0,
    34,
    0,
    4,
    0,
    34,
    0,
    4,
    0,
    34,
    0,
    4,
    0,
    34,
    0,
    4,
    0,
    34,
    0,
    4,
    0,
    34,
    38,
    38,
    0,
    4,
    38,
    38,
    3,
    4,
    3,
    33,
    3,
    4,
    3,
    3,
    3,
    4,
    3,
    33,
    3,
    4,
    3,
    3,
    3,
    4,
    3,
    33,
    3,
    4,
    3,
    3,
    38,
    38,
    3,
    0,
    38,
    38,
    0,
    0,
    0,
    0,
    0,
    0,
    0,
    0,
    39,
    0,
    0,
    0,
    0,
    0,
    0,
    0,
    0,
    0,
    0,
    0,
    0,
    0,
    0,
    0,
    38,
    38,
    0,
    0,
    38,
    38,
    0,
    0,
    0,
    0,
    0,
    0,
    0,
    0,
    0,
    0,
    0,
    0,
    0,
    0,
    0,
    0,
    0,
    0,
    0,
    0,
    0,
    0,
    0,
    0,
    38,
    38,
    0,
    0,
    38,
    38,
    0,
    0,
    0,
    0,
    0,
    0,
    0,
    0,
    0,
    0,
    0,
    0,
    0,
    0,
    0,
    0,
    0,
    0,
    0,
    0,
    0,
    0,
    0,
    0,
    38,
    38,
    0,
    7,
    6,
    7,
    6,
    7,
    6,
    6,
    6,
    38,
    38,
    6,
    6,
    7,
    6,
    6,
    6,
    7,
    6,
    6,
    6,
    38,
    38,
    6,
    6,
    7,
    6,
    6,
    6,
    7,
    6,
    0,
    0,
    0,
    0,
    0,
    0,
    0,
    0,
    38,
    38,
    0,
    0,
    0,
    0,
    0,
    0,
    0,
    0,
    0,
    0,
    38,
    38,
    0,
    0,
    0,
    0,
    0,
    0,
    0,
    0,
    0,
    0,
    0,
    0,
    0,
    0,
    0,
    0,
    0,
    0,
    0,
    0,
    0,
    0,
    0,
    0,
    0,
    0,
    0,
    0,
    0,
    0,
    0,
    0,
    0,
    0,
    0,
    0,
    0,
    0,
    0,
    0,
    0,
    0,
    0,
    0,
    0,
    0,
    0,
    0,
    0,
    0,
    0,
    0,
    0,
    0,
    0,
    0,
    0,
    0,
    0,
    0,
    0,
    0,
    0,
    0,
    0,
    0,
    0,
    0,
    0,
    0,
    0,
    24,
    0,
    0,
    0,
    0,
    0,
    0,
    0,
    24,
    0,
    0,
    0,
    0,
    0,
    24,
    0,
    0,
    0,
    0,
    0,
    0,
    0,
    24,
    0,
    0,
    0,
    0,
    0,
    0,
    0,
    0,
    0,
    0,
    0,
    0,
    0,
    0,
    0,
    0,
    0,
    0,
    0,
    0,
    0,
    0,
    0,
    0,
    0,
    0,
    0,
    0,
    0,
    0,
    0,
    0,
    0,
    0
   ]
  },
  {
   "id": 3,
   "name": "collision",
   "type": "tilelayer",
   "x": 0,
   "y": 0,
   "width": 30,
   "height": 26,
   "opacity": 1,
   "visible": false,
   "data": [
    1,
    0,
    0,
    1,
    1,
    1,
    1,
    1,
    1,
    1,
    1,
    1,
    1,
    1,
    1,
    1,
    1,
    1,
    1,
    1,
    1,
    1,
    1,
    1,
    1,
    1,
    1,
    0,
    0,
    1,
    1,
    0,
    0,
    1,
    1,
    1,
    1,
    1,
    1,
    1,
    1,
    1,
    1,
    1,
    1,
    1,
    1,
    1,
    1,
    1,
    1,
    1,
    1,
    1,
    1,
    1,
    1,
    0,
    0,
    1,
    1,
    0,
    0,
    1,
    1,
    1,
    1,
    1,
    1,
    1,
    1,
    1,
    1,
    1,
    1,
    1,
    1,
    1,
    1,
    1,
    1,
    1,
    1,
    1,
    1,
    1,
    1,
    0,
    0,
    1,
    1,
    0,
    0,
    0,
    0,
    0,
    0,
    0,
    0,
    0,
    0,
    0,
    0,
    0,
    0,
    0,
    0,
    0,
    0,
    0,
    0,
    0,
    0,
    0,
    0,
    0,
    0,
    0,
    0,
    1,
    1,
    0,
    0,
    0,
    0,
    0,
    0,
    0,
    0,
    0,
    0,
    0,
    0,
    0,
    0,
    0,
    0,
    0,
    0,
    0,
    0,
    0,
    0,
    1,
    0,
    0,
    0,
    0,
    0,
    1,
    1,
    0,
    0,
    0,
    0,
    0,
    0,
    0,
    0,
    0,
    0,
    0,
    0,
    0,
    0,
    0,
    0,
    0,
    0,
    0,
    0,
    0,
    0,
    0,
    0,
    0,
    0,
    0,
    0,
    1,
    1,
    0,
    0,
    1,
    1,
    1,
    1,
    1,
    1,
    1,
    1,
    1,
    1,
    1,
    1,
    1,
    1,
    1,
    1,
    1,
    1,
    1,
    1,
    1,
    1,
    1,
    1,
    0,
    0,
    1,
    1,
    0,
    0,
    1,
    1,
    1,
    1,
    1,
    1,
    1,
    1,
    1,
    1,
    1,
    1,
    1,
    1,
    1,
    1,
    1,
    1,
    1,
    1,
    1,
    1,
    1,
    1,
    0,
    0,
    1,
    1,
    0,
    0,
    1,
    1,
    1,
    1,
    1,
    1,
    1,
    1,
    1,
    1,
    1,
    1,
    1,
    1,
    1,
    1,
    1,
    1,
    1,
    1,
    1,
    1,
    1,
    1,
    0,
    0,
    1,
    1,
    0,
    0,
    1,
    1,
    1,
    1,
    1,
    1,
    1,
    1,
    1,
    1,
    1,
    1,
    1,
    1,
    1,
    1,
    1,
    1,
    1,
    1,
    1,
    1,
    1,
    1,
    0,
    0,
    1,
    1,
    0,
    0,
    0,
    0,
    0,
    0,
    0,
    0,
    0,
    0,
    0,
    0,
    0,
    0,
    0,
    0,
    0,
    0,
    0,
    0,
    0,
    0,
    0,
    0,
    0,
    0,
    0,
    0,
    1,
    1,
    0,
    0,
    0,
    0,
    0,
    0,
    0,
    0,
    0,
    0,
    0,
    0,
    0,
    0,
    0,
    1,
    0,
    0,
    0,
    0,
    0,
    0,
    0,
    0,
    0,
    0,
    0,
    0,
    1,
    1,
    0,
    0,
    0,
    0,
    0,
    0,
    0,
    0,
    0,
    0,
    0,
    0,
    0,
    0,
    0,
    0,
    0,
    0,
    0,
    0,
    0,
    0,
    0,
    0,
    0,
    0,
    0,
    0,
    1,
    1,
    0,
    0,
    1,
    1,
    1,
    1,
    1,
    1,
    1,
    1,
    1,
    1,
    1,
    1,
    1,
    1,
    1,
    1,
    1,
    1,
    1,
    1,
    1,
    1,
    1,
    1,
    0,
    0,
    1,
    1,
    0,
    0,
    1,
    1,
    1,
    1,
    1,
    1,
    1,
    1,
    1,
    1,
    1,
    1,
    1,
    1,
    1,
    1,
    1,
    1,
    1,
    1,
    1,
    1,
    1,
    1,
    0,
    0,
    1,
    1,
    0,
    0,
    1,
    1,
    1,
    1,
    1,
    1,
    1,
    1,
    1,
    1,
    1,
    1,
    1,
    1,
    1,
    1,
    1,
    1,
    1,
    1,
    1,
    1,
    1,
    1,
    0,
    0,
    1,
    1,
    0,
    0,
    1,
    1,
    1,
    1,
    1,
    1,
    1,
    1,
    1,
    1,
    1,
    1,
    1,
    1,
    1,
    1,
    1,
    1,
    1,
    1,
    1,
    1,
    1,
    1,
    0,
    0,
    1,
    1,
    0,
    0,
    0,
    0,
    1,
    0,
    0,
    0,
    0,
    0,
    1,
    0,
    0,
    0,
    0,
    0,
    0,
    0,
    0,
    0,
    0,
    0,
    0,
    0,
    0,
    0,
    0,
    0,
    1,
    1,
    0,
    0,
    0,
    0,
    0,
    0,
    0,
    0,
    0,
    0,
    0,
    0,
    0,
    0,
    0,
    0,
    0,
    0,
    0,
    0,
    0,
    0,
    0,
    1,
    0,
    0,
    0,
    0,
    1,
    1,
    0,
    0,
    0,
    0,
    0,
    0,
    0,
    0,
    0,
    0,
    0,
    0,
    0,
    0,
    0,
    0,
    0,
    0,
    0,
    0,
    0,
    0,
    0,
    0,
    0,
    0,
    0,
    0,
    1,
    1,
    1,
    1,
    1,
    1,
    1,
    1,
    1,
    0,
    0,
    1,
    1,
    1,
    1,
    1,
    1,
    1,
    1,
    1,
    1,
    0,
    0,
    1,
    1,
    1,
    1,
    1,
    1,
    1,
    1,
    1,
    1,
    1,
    1,
    1,
    1,
    1,
    1,
    0,
    0,
    1,
    1,
    1,
    1,
    1,
    1,
    1,
    1,
    1,
    1,
    0,
    0,
    1,
    1,
    1,
    1,
    1,
    1,
    1,
    1,
    1,
    1,
    1,
    1,
    1,
    1,
    1,
    1,
    1,
    1,
    1,
    1,
    1,
    1,
    1,
    1,
    1,
    1,
    1,
    1,
    1,
    1,
    1,
    1,
    1,
    1,
    1,
    1,
    1,
    1,
    1,
    1,
    1,
    1,
    1,
    1,
    1,
    1,
    1,
    1,
    1,
    1,
    1,
    1,
    1,
    1,
    1,
    1,
    1,
    1,
    1,
    1,
    1,
    1,
    1,
    1,
    1,
    1,
    1,
    1,
    1,
    1,
    1,
    1,
    1,
    1,
    1,
    1,
    1,
    1,
    1,
    1,
    1,
    1,
    1,
    1,
    1,
    1,
    1,
    1,
    1,
    1,
    1,
    1,
    1,
    1,
    1,
    1,
    1,
    1,
    1,
    1,
    1,
    1,
    1,
    1,
    1,
    1,
    1,
    1,
    1,
    1,
    1,
    1,
    1,
    1,
    1,
    1,
    1,
    1,
    1,
    1,
    1,
    1,
    1,
    1,
    1,
    1,
    1,
    1
   ]
  },
  {
   "id": 4,
   "name": "overlay",
   "type": "tilelayer",
   "x": 0,
   "y": 0,
   "width": 30,
   "height": 26,
   "opacity": 1,
   "visible": true,
   "data": [
    0,
    0,
    0,
    0,
    0,
    0,
    0,
    0,
    0,
    0,
    0,
    0,
    0,
    0,
    0,
    0,
    0,
    0,
    0,
    0,
    0,
    0,
    0,
    0,
    0,
    0,
    0,
    0,
    0,
    0,
    0,
    0,
    0,
    0,
    0,
    0,
    0,
    0,
    0,
    0,
    0,
    0,
    0,
    0,
    0,
    0,
    0,
    0,
    0,
    0,
    0,
    0,
    0,
    0,
    0,
    0,
    0,
    0,
    0,
    0,
    0,
    0,
    0,
    0,
    0,
    0,
    0,
    0,
    0,
    0,
    0,
    0,
    0,
    0,
    0,
    0,
    0,
    0,
    0,
    0,
    0,
    0,
    0,
    0,
    0,
    0,
    0,
    0,
    0,
    0,
    0,
    0,
    0,
    0,
    0,
    0,
    0,
    0,
    0,
    0,
    0,
    0,
    0,
    0,
    0,
    0,
    0,
    0,
    0,
    0,
    0,
    0,
    0,
    0,
    0,
    0,
    0,
    0,
    0,
    0,
    0,
    0,
    0,
    0,
    0,
    0,
    0,
    0,
    0,
    0,
    0,
    0,
    0,
    0,
    0,
    0,
    0,
    0,
    0,
    0,
    0,
    0,
    0,
    0,
    0,
    0,
    0,
    0,
    0,
    0,
    0,
    0,
    0,
    0,
    0,
    0,
    0,
    0,
    0,
    0,
    0,
    0,
    0,
    0,
    0,
    0,
    0,
    0,
    0,
    0,
    0,
    0,
    0,
    0,
    0,
    0,
    0,
    0,
    0,
    0,
    0,
    0,
    0,
    0,
    0,
    0,
    0,
    0,
    0,
    0,
    0,
    0,
    0,
    0,
    0,
    0,
    0,
    0,
    0,
    0,
    0,
    0,
    0,
    0,
    0,
    0,
    0,
    0,
    0,
    0,
    0,
    0,
    0,
    0,
    0,
    0,
    0,
    0,
    0,
    0,
    0,
    0,
    0,
    0,
    0,
    0,
    0,
    0,
    0,
    0,
    0,
    0,
    0,
    0,
    0,
    0,
    0,
    0,
    0,
    0,
    0,
    0,
    0,
    0,
    0,
    0,
    0,
    0,
    0,
    0,
    0,
    0,
    0,
    0,
    0,
    0,
    0,
    0,
    0,
    0,
    0,
    0,
    0,
    0,
    0,
    0,
    0,
    0,
    0,
    0,
    0,
    0,
    0,
    0,
    0,
    0,
    0,
    0,
    0,
    0,
    0,
    0,
    0,
    0,
    0,
    0,
    0,
    0,
    0,
    0,
    0,
    0,
    0,
    0,
    0,
    0,
    0,
    0,
    0,
    0,
    0,
    0,
    0,
    0,
    0,
    0,
    0,
    0,
    0,
    0,
    0,
    0,
    0,
    0,
    0,
    0,
    0,
    0,
    0,
    0,
    0,
    0,
    0,
    0,
    0,
    0,
    0,
    0,
    0,
    0,
    0,
    0,
    0,
    0,
    0,
    0,
    0,
    0,
    0,
    0,
    0,
    0,
    0,
    0,
    0,
    0,
    0,
    0,
    0,
    0,
    0,
    0,
    0,
    0,
    0,
    0,
    0,
    0,
    0,
    0,
    0,
    0,
    0,
    0,
    0,
    0,
    0,
    0,
    0,
    0,
    0,
    0,
    0,
    0,
    0,
    0,
    0,
    0,
    0,
    0,
    0,
    0,
    0,
    0,
    0,
    0,
    0,
    0,
    0,
    0,
    0,
    0,
    0,
    0,
    0,
    0,
    0,
    0,
    0,
    0,
    0,
    0,
    0,
    0,
    0,
    0,
    0,
    0,
    0,
    0,
    0,
    0,
    0,
    0,
    0,
    0,
    0,
    0,
    0,
    0,
    0,
    0,
    0,
    0,
    0,
    0,
    0,
    0,
    0,
    0,
    0,
    0,
    0,
    0,
    0,
    0,
    0,
    0,
    0,
    0,
    0,
    0,
    0,
    0,
    0,
    0,
    0,
    0,
    0,
    0,
    0,
    0,
    0,
    0,
    0,
    0,
    0,
    0,
    0,
    0,
    0,
    0,
    0,
    0,
    0,
    0,
    0,
    0,
    0,
    0,
    0,
    0,
    0,
    0,
    0,
    0,
    0,
    0,
    0,
    0,
    0,
    0,
    0,
    0,
    0,
    0,
    0,
    0,
    0,
    0,
    0,
    0,
    0,
    0,
    0,
    0,
    0,
    0,
    0,
    0,
    0,
    0,
    0,
    0,
    0,
    0,
    0,
    0,
    0,
    0,
    0,
    0,
    0,
    0,
    0,
    0,
    0,
    0,
    0,
    0,
    0,
    0,
    0,
    0,
    0,
    0,
    0,
    0,
    0,
    0,
    0,
    0,
    0,
    0,
    0,
    0,
    0,
    0,
    0,
    0,
    0,
    0,
    0,
    0,
    0,
    0,
    0,
    0,
    0,
    0,
    0,
    0,
    0,
    0,
    0,
    0,
    0,
    0,
    0,
    0,
    0,
    0,
    0,
    0,
    0,
    0,
    0,
    0,
    0,
    0,
    0,
    0,
    0,
    0,
    0,
    0,
    0,
    0,
    0,
    0,
    0,
    0,
    0,
    0,
    0,
    0,
    0,
    0,
    0,
    0,
    0,
    0,
    0,
    0,
    0,
    0,
    0,
    0,
    0,
    0,
    0,
    0,
    0,
    0,
    0,
    0,
    0,
    0,
    0,
    0,
    0,
    0,
    0,
    0,
    0,
    0,
    0,
    0,
    0,
    0,
    0,
    0,
    0,
    0,
    0,
    0,
    0,
    0,
    0,
    0,
    0,
    0,
    0,
    0,
    0,
    0,
    0,
    0,
    0,
    0,
    0,
    0,
    0,
    0,
    0,
    0,
    0,
    0,
    0,
    0,
    0,
    0,
    0,
    0,
    0,
    0,
    0,
    0,
    0,
    0,
    0,
    0,
    0,
    20,
    21,
    0,
    0,
    0,
    0,
    0,
    0,
    20,
    21,
    0,
    0,
    0,
    0,
    20,
    21,
    0,
    0,
    0,
    0,
    0,
    0,
    20,
    21,
    0,
    0,
    0,
    0,
    0,
    0,
    22,
    23,
    0,
    0,
    0,
    0,
    0,
    0,
    22,
    23,
    0,
    0,
    0,
    0,
    22,
    23,
    0,
    0,
    0,
    0,
    0,
    0,
    22,
    23,
    0,
    0,
    0,
    0,
    0,
    0,
    0,
    0,
    0,
    0,
    0,
    0,
    0,
    0,
    0,
    0,
    0,
    0,
    0,
    0,
    0,
    0,
    0,
    0,
    0,
    0,
    0,
    0,
    0,
    0,
    0,
    0,
    0,
    0,
    0,
    0,
    0,
    0,
    0,
    0,
    0,
    0,
    0,
    0,
    0,
    0,
    0,
    0,
    0,
    0,
    0,
    0,
    0,
    0,
    0,
    0,
    0,
    0,
    0,
    0,
    0,
    0,
    0
   ]
  },
  {
   "id": 5,
   "name": "objects",
   "type": "objectgroup",
   "x": 0,
   "y": 0,
   "opacity": 1,
   "visible": true,
   "draworder": "topdown",
   "objects": [
    {
     "id": 1,
     "name": "lop-10c7",
     "type": "interact",
     "x": 80,
     "y": 32,
     "width": 48,
     "height": 48,
     "rotation": 0,
     "visible": true,
     "properties": [
      {
       "name": "kind",
       "type": "string",
       "value": "text"
      },
      {
       "name": "text",
       "type": "string",
       "value": "Tầng 3 – Lớp 10C7. Cửa còn hé mở, bên trong nghe tiếng quạt trần quay đều."
      }
     ]
    },
    {
     "id": 2,
     "name": "lop-10c8",
     "type": "interact",
     "x": 208,
     "y": 32,
     "width": 48,
     "height": 48,
     "rotation": 0,
     "visible": true,
     "properties": [
      {
       "name": "kind",
       "type": "string",
       "value": "text"
      },
      {
       "name": "text",
       "type": "string",
       "value": "Tầng 3 – Lớp 10C8. Cửa còn hé mở, bên trong nghe tiếng quạt trần quay đều."
      }
     ]
    },
    {
     "id": 3,
     "name": "lop-10c9",
     "type": "interact",
     "x": 336,
     "y": 32,
     "width": 48,
     "height": 48,
     "rotation": 0,
     "visible": true,
     "properties": [
      {
       "name": "kind",
       "type": "string",
       "value": "text"
      },
      {
       "name": "text",
       "type": "string",
       "value": "Tầng 3 – Lớp 10C9. Cửa còn hé mở, bên trong nghe tiếng quạt trần quay đều."
      }
     ]
    },
    {
     "id": 4,
     "name": "nhan-tang-0",
     "type": "interact",
     "x": 48,
     "y": 48,
     "width": 48,
     "height": 48,
     "rotation": 0,
     "visible": true,
     "properties": [
      {
       "name": "kind",
       "type": "string",
       "value": "text"
      },
      {
       "name": "text",
       "type": "string",
       "value": "Tầng 3 – các lớp 10C7 đến 10C9."
      }
     ]
    },
    {
     "id": 5,
     "name": "lop-10c4",
     "type": "interact",
     "x": 80,
     "y": 144,
     "width": 48,
     "height": 48,
     "rotation": 0,
     "visible": true,
     "properties": [
      {
       "name": "kind",
       "type": "string",
       "value": "text"
      },
      {
       "name": "text",
       "type": "string",
       "value": "Tầng 2 – Lớp 10C4. Cửa còn hé mở, bên trong nghe tiếng quạt trần quay đều."
      }
     ]
    },
    {
     "id": 6,
     "name": "lop-10c5",
     "type": "interact",
     "x": 208,
     "y": 144,
     "width": 48,
     "height": 48,
     "rotation": 0,
     "visible": true,
     "properties": [
      {
       "name": "kind",
       "type": "string",
       "value": "text"
      },
      {
       "name": "text",
       "type": "string",
       "value": "Tầng 2 – Lớp 10C5. Cửa còn hé mở, bên trong nghe tiếng quạt trần quay đều."
      }
     ]
    },
    {
     "id": 7,
     "name": "lop-10c6",
     "type": "interact",
     "x": 336,
     "y": 144,
     "width": 48,
     "height": 48,
     "rotation": 0,
     "visible": true,
     "properties": [
      {
       "name": "kind",
       "type": "string",
       "value": "text"
      },
      {
       "name": "text",
       "type": "string",
       "value": "Tầng 2 – Lớp 10C6. Cửa còn hé mở, bên trong nghe tiếng quạt trần quay đều."
      }
     ]
    },
    {
     "id": 8,
     "name": "nhan-tang-7",
     "type": "interact",
     "x": 48,
     "y": 160,
     "width": 48,
     "height": 48,
     "rotation": 0,
     "visible": true,
     "properties": [
      {
       "name": "kind",
       "type": "string",
       "value": "text"
      },
      {
       "name": "text",
       "type": "string",
       "value": "Tầng 2 – các lớp 10C4 đến 10C6."
      }
     ]
    },
    {
     "id": 9,
     "name": "lop-10c1",
     "type": "interact",
     "x": 80,
     "y": 256,
     "width": 48,
     "height": 48,
     "rotation": 0,
     "visible": true,
     "properties": [
      {
       "name": "kind",
       "type": "string",
       "value": "text"
      },
      {
       "name": "text",
       "type": "string",
       "value": "Tầng 1 – Lớp 10C1. Cửa còn hé mở, bên trong nghe tiếng quạt trần quay đều."
      }
     ]
    },
    {
     "id": 10,
     "name": "lop-10c2",
     "type": "interact",
     "x": 208,
     "y": 256,
     "width": 48,
     "height": 48,
     "rotation": 0,
     "visible": true,
     "properties": [
      {
       "name": "kind",
       "type": "string",
       "value": "text"
      },
      {
       "name": "text",
       "type": "string",
       "value": "Tầng 1 – Lớp 10C2. Cửa còn hé mở, bên trong nghe tiếng quạt trần quay đều."
      }
     ]
    },
    {
     "id": 11,
     "name": "lop-10c3",
     "type": "interact",
     "x": 336,
     "y": 256,
     "width": 48,
     "height": 48,
     "rotation": 0,
     "visible": true,
     "properties": [
      {
       "name": "kind",
       "type": "string",
       "value": "text"
      },
      {
       "name": "text",
       "type": "string",
       "value": "Tầng 1 – Lớp 10C3. Cửa còn hé mở, bên trong nghe tiếng quạt trần quay đều."
      }
     ]
    },
    {
     "id": 12,
     "name": "nhan-tang-14",
     "type": "interact",
     "x": 48,
     "y": 272,
     "width": 48,
     "height": 48,
     "rotation": 0,
     "visible": true,
     "properties": [
      {
       "name": "kind",
       "type": "string",
       "value": "text"
      },
      {
       "name": "text",
       "type": "string",
       "value": "Tầng 1 – các lớp 10C1 đến 10C3."
      }
     ]
    },
    {
     "id": 13,
     "name": "cau-thang-trai",
     "type": "interact",
     "x": 0,
     "y": 48,
     "width": 64,
     "height": 272,
     "rotation": 0,
     "visible": true,
     "properties": [
      {
       "name": "kind",
       "type": "string",
       "value": "text"
      },
      {
       "name": "text",
       "type": "string",
       "value": "Cầu thang lên xuống các tầng của khu lầu phía nam, toàn lớp 10."
      }
     ]
    },
    {
     "id": 14,
     "name": "to-san-chinh-nam-trai",
     "type": "exit",
     "x": 128,
     "y": 336,
     "width": 32,
     "height": 16,
     "rotation": 0,
     "visible": true
    },
    {
     "id": 15,
     "name": "to-san-chinh-nam-phai",
     "type": "exit",
     "x": 320,
     "y": 336,
     "width": 32,
     "height": 16,
     "rotation": 0,
     "visible": true
    },
    {
     "id": 16,
     "name": "bang-ghe",
     "type": "interact",
     "x": 160,
     "y": 256,
     "width": 48,
     "height": 48,
     "rotation": 0,
     "visible": true,
     "properties": [
      {
       "name": "kind",
       "type": "string",
       "value": "activity"
      },
      {
       "name": "text",
       "type": "string",
       "value": "Bạn ngồi xuống ghế hành lang tầng trệt, nghe tiếng trống xa xa."
      },
      {
       "name": "label",
       "type": "string",
       "value": "Ngồi nghỉ"
      },
      {
       "name": "cost",
       "type": "int",
       "value": 1
      }
     ]
    },
    {
     "id": 17,
     "name": "",
     "type": "sprite",
     "x": 80,
     "y": 264,
     "width": 16,
     "height": 24,
     "rotation": 0,
     "visible": true,
     "properties": [
      {
       "name": "frame",
       "type": "string",
       "value": "student_girl"
      }
     ]
    },
    {
     "id": 18,
     "name": "",
     "type": "sprite",
     "x": 384,
     "y": 280,
     "width": 16,
     "height": 24,
     "rotation": 0,
     "visible": true,
     "properties": [
      {
       "name": "frame",
       "type": "string",
       "value": "student_boy"
      }
     ]
    },
    {
     "id": 19,
     "name": "",
     "type": "sprite",
     "x": 256,
     "y": 168,
     "width": 16,
     "height": 24,
     "rotation": 0,
     "visible": true,
     "properties": [
      {
       "name": "frame",
       "type": "string",
       "value": "student_boy"
      }
     ]
    },
    {
     "id": 20,
     "name": "",
     "type": "sprite",
     "x": 368,
     "y": 56,
     "width": 16,
     "height": 24,
     "rotation": 0,
     "visible": true,
     "properties": [
      {
       "name": "frame",
       "type": "string",
       "value": "student_girl"
      }
     ]
    }
   ]
  }
 ],
 "tilesets": [
  {
   "firstgid": 1,
   "name": "tileset",
   "image": "../../public/assets/tileset.png",
   "imagewidth": 256,
   "imageheight": 64,
   "columns": 16,
   "tilecount": 64,
   "tilewidth": 16,
   "tileheight": 16,
   "margin": 0,
   "spacing": 0
  }
 ]
}
